Simply-Green-Circles/scalable/apps/qt.svg

<svg xmlns="http://www.w3.org/2000/svg" width="48" height="48" viewBox="0 0 12.7 12.7"><path d="M6.34.07a6.29 6.29 0 0 0-6.29 6.3 6.29 6.29 0 0 0 6.3 6.28 6.29 6.29 0 0 0 6.28-6.29A6.29 6.29 0 0 0 6.34.07zm-.01.94a5.4 5.4 0 0 1 5.4 5.4 5.4 5.4 0 0 1-5.4 5.41 5.4 5.4 0 0 1-5.41-5.4A5.4 5.4 0 0 1 6.32 1zM4.89 2.58c-.45 0-.84.07-1.17.21A2.17 2.17 0 0 0 2.4 4.27a4.21 4.21 0 0 0-.04 2.24c.1.31.22.6.4.84a2.19 2.19 0 0 0 1.56.92c.03.33.1.61.22.84a1.81 1.81 0 0 0 1.08.9c.23.07.45.1.69.1h.56v-.45h-.12c-.13 0-.26-.02-.39-.06a.84.84 0 0 1-.34-.22c-.1-.1-.19-.25-.26-.43a2.55 2.55 0 0 1-.14-.71 2.29 2.29 0 0 0 1.41-.96c.16-.24.28-.51.36-.82a3.86 3.86 0 0 0-.05-2.19 2.46 2.46 0 0 0-.5-.9c-.23-.25-.5-.44-.83-.58-.33-.14-.7-.2-1.12-.2zm0 .51c.24 0 .45.06.61.16.17.1.3.26.41.46.1.2.18.45.23.74a6.18 6.18 0 0 1 0 2c-.05.29-.12.54-.23.74-.1.2-.24.35-.41.46-.17.1-.37.16-.62.16-.24 0-.44-.06-.61-.16a1.2 1.2 0 0 1-.42-.46c-.1-.2-.18-.45-.23-.74a6.18 6.18 0 0 1 0-2c.05-.3.12-.54.23-.74.1-.2.25-.35.42-.46.17-.1.37-.16.62-.16zm3.85 0c-.07.35-.19.6-.35.77a1 1 0 0 1-.77.33v.4h.59v2.5c0 .23.02.42.08.58.05.15.13.27.23.37.1.1.22.17.36.21.14.04.3.07.47.07a3.6 3.6 0 0 0 .94-.13l.17-.07v-.5l-.26.05c-.09.02-.19.02-.3.02-.17 0-.3-.05-.39-.16-.08-.11-.11-.29-.11-.52V4.6h.99v-.54h-1v-.97h-.65zM9.5 6.7z" fill="#2ca02c"/></svg>

<?xml version="1.0" encoding="UTF-8" standalone="no"?>
<svg
   xmlns:dc="http://purl.org/dc/elements/1.1/"
   xmlns:cc="http://creativecommons.org/ns#"
   xmlns:rdf="http://www.w3.org/1999/02/22-rdf-syntax-ns#"
   xmlns:svg="http://www.w3.org/2000/svg"
   xmlns="http://www.w3.org/2000/svg"
   xmlns:sodipodi="http://sodipodi.sourceforge.net/DTD/sodipodi-0.dtd"
   xmlns:inkscape="http://www.inkscape.org/namespaces/inkscape"
   width="48"
   height="48"
   viewBox="0 0 12.7 12.7"
   version="1.1"
   id="svg4"
   sodipodi:docname="qt.svg"
   inkscape:version="0.92.4 (5da689c313, 2019-01-14)">
  <metadata
     id="metadata10">
    <rdf:RDF>
      <cc:Work
         rdf:about="">
        <dc:format>image/svg+xml</dc:format>
        <dc:type
           rdf:resource="http://purl.org/dc/dcmitype/StillImage" />
        <dc:title></dc:title>
      </cc:Work>
    </rdf:RDF>
  </metadata>
  <defs
     id="defs8" />
  <sodipodi:namedview
     pagecolor="#ffffff"
     bordercolor="#666666"
     borderopacity="1"
     objecttolerance="10"
     gridtolerance="10"
     guidetolerance="10"
     inkscape:pageopacity="0"
     inkscape:pageshadow="2"
     inkscape:window-width="1087"
     inkscape:window-height="480"
     id="namedview6"
     showgrid="false"
     inkscape:zoom="4.9166667"
     inkscape:cx="2.1355932"
     inkscape:cy="24"
     inkscape:window-x="0"
     inkscape:window-y="25"
     inkscape:window-maximized="0"
     inkscape:current-layer="svg4" />
  <path
     d="M 6.34,0.07 A 6.29,6.29 0 0 0 0.05,6.37 6.29,6.29 0 0 0 6.35,12.65 6.29,6.29 0 0 0 12.63,6.36 6.29,6.29 0 0 0 6.34,0.07 Z M 6.33,1.01 a 5.4,5.4 0 0 1 5.4,5.4 5.4,5.4 0 0 1 -5.4,5.41 A 5.4,5.4 0 0 1 0.92,6.42 5.4,5.4 0 0 1 6.32,1 Z M 4.89,2.58 C 4.44,2.58 4.05,2.65 3.72,2.79 A 2.17,2.17 0 0 0 2.4,4.27 4.21,4.21 0 0 0 2.36,6.51 c 0.1,0.31 0.22,0.6 0.4,0.84 a 2.19,2.19 0 0 0 1.56,0.92 c 0.03,0.33 0.1,0.61 0.22,0.84 a 1.81,1.81 0 0 0 1.08,0.9 c 0.23,0.07 0.45,0.1 0.69,0.1 H 6.87 V 9.66 H 6.75 C 6.62,9.66 6.49,9.64 6.36,9.6 A 0.84,0.84 0 0 1 6.02,9.38 C 5.92,9.28 5.83,9.13 5.76,8.95 A 2.55,2.55 0 0 1 5.62,8.24 2.29,2.29 0 0 0 7.03,7.28 C 7.19,7.04 7.31,6.77 7.39,6.46 A 3.86,3.86 0 0 0 7.34,4.27 2.46,2.46 0 0 0 6.84,3.37 C 6.61,3.12 6.34,2.93 6.01,2.79 5.68,2.65 5.31,2.59 4.89,2.59 Z m 0,0.51 c 0.24,0 0.45,0.06 0.61,0.16 0.17,0.1 0.3,0.26 0.41,0.46 0.1,0.2 0.18,0.45 0.23,0.74 a 6.18,6.18 0 0 1 0,2 C 6.09,6.74 6.02,6.99 5.91,7.19 5.81,7.39 5.67,7.54 5.5,7.65 5.33,7.75 5.13,7.81 4.88,7.81 4.64,7.81 4.44,7.75 4.27,7.65 A 1.2,1.2 0 0 1 3.85,7.19 C 3.75,6.99 3.67,6.74 3.62,6.45 a 6.18,6.18 0 0 1 0,-2 C 3.67,4.15 3.74,3.91 3.85,3.71 3.95,3.51 4.1,3.36 4.27,3.25 4.44,3.15 4.64,3.09 4.89,3.09 Z m 3.85,0 C 8.67,3.44 8.55,3.69 8.39,3.86 A 1,1 0 0 1 7.62,4.19 v 0.4 h 0.59 v 2.5 c 0,0.23 0.02,0.42 0.08,0.58 0.05,0.15 0.13,0.27 0.23,0.37 0.1,0.1 0.22,0.17 0.36,0.21 0.14,0.04 0.3,0.07 0.47,0.07 A 3.6,3.6 0 0 0 10.29,8.19 L 10.46,8.12 V 7.62 L 10.2,7.67 C 10.11,7.69 10.01,7.69 9.9,7.69 9.73,7.69 9.6,7.64 9.51,7.53 9.43,7.42 9.4,7.24 9.4,7.01 V 4.6 h 0.99 V 4.06 h -1 V 3.09 Z M 9.5,6.7 Z"
     id="path2"
     inkscape:connector-curvature="0"
     style="fill:#2ca02c" />
</svg>
